X: 3291
T: Belharbour, The
R: reel
M: 4/4
K: Gmajor
DGGD ~G3A|(3Bcd gd egdc|BDGB DGBG|A2AB AGEG|
DGGD ~G3z|Bdgd (3efg dc|(3Bcd ed g2ed|g2ed BGGz||
gd~d2 ed (3Bcd|gbaf gfef|g~d3 edBG|FGAB cdef|
g2fa gdBd|gbaf gfed|(3Bcd ed g2ed|g2ed BG3||

